images/ico-bicro-emploi-candidat.svg

<svg xmlns="http://www.w3.org/2000/svg" width="25" height="25" fill="none" viewBox="0 0 25 25"><circle cx="17.5" cy="7.5" r="6.25" fill="#006adc"/><path fill="#000638" fill-rule="evenodd" d="M4.04286 6.41926C4.04286 5.08246 5.05526 4 6.30556 4C6.75029 4 7.13786 4.12856 7.48703 4.34634C7.51816 4.36575 7.54681 4.38937 7.57229 4.41661L8.15435 5.03894C8.17389 5.05983 8.19144 5.08273 8.20677 5.1073C8.4502 5.49772 8.56825 5.94869 8.56825 6.41926C8.56825 7.75606 7.55585 8.83852 6.30556 8.83852C5.05526 8.83852 4.04286 7.75606 4.04286 6.41926ZM6.30556 4.89706C5.51863 4.89706 4.88187 5.57789 4.88187 6.41926C4.88187 7.26063 5.51863 7.94146 6.30556 7.94146C7.09248 7.94146 7.72924 7.26063 7.72924 6.41926C7.72924 6.12711 7.6606 5.8641 7.52961 5.63961L7.01942 5.09412C6.80012 4.96617 6.57029 4.89706 6.30556 4.89706ZM4.61429 9.4913C4.25962 9.30169 3.83901 9.58275 3.83901 9.99769V12.7463C3.83901 12.9217 3.86029 13.0618 3.9021 13.1661C3.90519 13.1738 3.90808 13.1816 3.91076 13.1895L4.10478 13.7599C4.12149 13.8091 4.13004 13.8609 4.13004 13.9132V19.5142C4.13004 19.8295 4.37173 20.077 4.65638 20.077C4.95128 20.077 5.18273 19.8186 5.18273 19.5142V16.5841C5.18273 15.9215 5.68583 15.3836 6.30556 15.3836C6.92528 15.3836 7.42838 15.9215 7.42838 16.5841V19.5402C7.42838 19.8555 7.67008 20.1029 7.95473 20.1029C8.24963 20.1029 8.48107 19.8445 8.48107 19.5402V14.1466C8.48107 14.0859 8.49261 14.0257 8.51499 13.9699L8.66271 13.6014C8.73678 13.4232 8.7721 13.2517 8.7721 13.0575C8.7721 12.8098 8.95992 12.609 9.19161 12.609C9.42329 12.609 9.61111 12.8098 9.61111 13.0575C9.61111 13.3808 9.5498 13.6752 9.43063 13.9629L9.32008 14.2387V19.5402C9.32008 20.3249 8.72694 21 7.95473 21C7.22077 21 6.58938 20.3658 6.58938 19.5402V16.5841C6.58938 16.4169 6.46191 16.2806 6.30556 16.2806C6.1492 16.2806 6.02173 16.4169 6.02173 16.5841V19.5142C6.02173 20.299 5.42859 20.9741 4.65638 20.9741C3.92243 20.9741 3.29103 20.3399 3.29103 19.5142V13.9922L3.12592 13.5068C3.02634 13.2518 3 12.982 3 12.7463V9.99769C3 8.90865 4.08305 8.20435 4.98951 8.68894L6.30556 9.3925L7.62161 8.68894C8.52806 8.20435 9.61111 8.90865 9.61111 9.99769V10.4904C9.61111 10.7381 9.42329 10.9389 9.19161 10.9389C8.95992 10.9389 8.7721 10.7381 8.7721 10.4904V9.99769C8.7721 9.58275 8.3515 9.30169 7.99682 9.4913L6.49316 10.2951C6.37506 10.3583 6.23605 10.3583 6.11795 10.2951L4.61429 9.4913Z" clip-rule="evenodd"/><path fill="#000638" fill-rule="evenodd" d="M9.139 11.556C9.4 11.556 9.611 11.716 9.611 11.914V12.142C9.611 12.34 9.4 12.5 9.139 12.5 8.878 12.5 8.667 12.34 8.667 12.142V11.914C8.667 11.716 8.878 11.556 9.139 11.556ZM11.028 4C11.289 4 11.5 4.203 11.5 4.453V20.547C11.5 20.797 11.289 21 11.028 21 10.767 21 10.556 20.797 10.556 20.547V4.453C10.556 4.203 10.767 4 11.028 4ZM14.752 7.238C14.752 7.014 14.963 6.833 15.223 6.833H19.529C19.702 6.833 19.861 6.915 19.943 7.046 20.026 7.176 20.018 7.335 19.923 7.46L18.949 8.732 19.921 9.982C20.017 10.107 20.026 10.266 19.944 10.398 19.862 10.529 19.703 10.611 19.529 10.611H13.86C13.6 10.611 13.389 10.43 13.389 10.207V8.734C13.389 8.511 13.6 8.33 13.86 8.33H14.752V7.238ZM15.694 7.642V8.734C15.694 8.957 15.483 9.138 15.223 9.138H14.332V9.802H18.648L17.992 8.958C17.887 8.823 17.886 8.648 17.99 8.512L18.656 7.642H15.694Z" clip-rule="evenodd"/><path fill="#000638" fill-rule="evenodd" d="M10.5556 5.43771C10.5556 5.16529 10.7959 4.94444 11.0924 4.94444H15.6854C15.9819 4.94444 16.2222 5.16529 16.2222 5.43771V9.1734C16.2222 9.44583 15.9819 9.66667 15.6854 9.66667H11.0924C10.7959 9.66667 10.5556 9.44583 10.5556 9.1734V5.43771ZM11.6292 5.93097V8.68014H15.1486V5.93097H11.6292Z" clip-rule="evenodd"/><path fill="#000638" fill-rule="evenodd" d="M13.3889 9.057C13.3889 8.87211 13.6483 8.72222 13.9682 8.72222H15.6429C15.8652 8.72222 16.0679 8.79572 16.1645 8.91139C16.2612 9.02706 16.2349 9.1645 16.0967 9.26511L14.422 10.4844C14.2688 10.596 14.0102 10.6393 13.7775 10.5924C13.5448 10.5456 13.3889 10.4187 13.3889 10.2763V9.057Z" clip-rule="evenodd"/></svg>

<svg xmlns="http://www.w3.org/2000/svg" width="25" height="25" fill="none" viewBox="0 0 25 25"><circle cx="17.5" cy="7.5" r="6.25" fill="#006ADC"/><path fill="#000638" fill-rule="evenodd" d="M4.043 6.42C4.043 5.081 5.055 4 6.306 4c.444 0 .832.129 1.181.346q.047.03.085.07l.582.623q.03.031.053.068c.243.39.361.842.361 1.312 0 1.337-1.012 2.42-2.262 2.42s-2.263-1.083-2.263-2.42m2.263-1.523c-.787 0-1.424.68-1.424 1.522S5.519 7.94 6.306 7.94s1.423-.68 1.423-1.522c0-.292-.068-.555-.2-.78l-.51-.545a1.4 1.4 0 0 0-.713-.197M4.614 9.491c-.354-.19-.775.092-.775.507v2.748a1.2 1.2 0 0 0 .072.444l.194.57q.024.074.025.153v5.601c0 .316.242.563.526.563.295 0 .527-.258.527-.563v-2.93c0-.662.503-1.2 1.123-1.2s1.122.537 1.122 1.2v2.956c0 .316.242.563.527.563.295 0 .526-.259.526-.563v-5.393q0-.092.034-.177l.148-.369c.074-.178.11-.35.11-.544 0-.247.187-.448.419-.448s.42.2.42.448c0 .324-.062.618-.181.906l-.11.276v5.301c0 .785-.594 1.46-1.366 1.46-.734 0-1.366-.634-1.366-1.46v-2.956c0-.167-.127-.303-.283-.303-.157 0-.284.136-.284.303v2.93c0 .785-.593 1.46-1.366 1.46-.734 0-1.365-.634-1.365-1.46v-5.522l-.165-.485a2.1 2.1 0 0 1-.126-.76v-2.75C3 8.91 4.083 8.205 4.99 8.69l1.316.704 1.316-.704c.906-.485 1.99.22 1.99 1.309v.492c0 .248-.189.449-.42.449-.232 0-.42-.2-.42-.449v-.492c0-.415-.42-.696-.775-.507l-1.504.804a.4.4 0 0 1-.375 0z" clip-rule="evenodd"/><path fill="#000638" fill-rule="evenodd" d="M9.139 11.556c.26 0 .472.16.472.358v.228c0 .198-.211.358-.472.358-.26 0-.472-.16-.472-.358v-.228c0-.198.211-.358.472-.358M11.028 4c.26 0 .472.203.472.453v16.094c0 .25-.211.453-.472.453a.463.463 0 0 1-.472-.453V4.453c0-.25.211-.453.472-.453m3.724 3.238c0-.224.21-.405.47-.405h4.307c.173 0 .332.082.414.213.083.13.075.29-.02.414l-.974 1.272.972 1.25a.36.36 0 0 1 .023.416.49.49 0 0 1-.415.213H13.86c-.26 0-.471-.18-.471-.404V8.734c0-.223.21-.404.471-.404h.892zm.942.404v1.092c0 .223-.21.404-.471.404h-.891v.664h4.316l-.656-.844a.36.36 0 0 1-.002-.446l.666-.87z" clip-rule="evenodd"/><path fill="#000638" fill-rule="evenodd" d="M10.556 5.438c0-.273.24-.494.536-.494h4.593c.297 0 .537.221.537.494v3.735c0 .273-.24.494-.537.494h-4.593c-.296 0-.536-.221-.536-.494zm1.073.493v2.75h3.52V5.93z" clip-rule="evenodd"/><path fill="#000638" fill-rule="evenodd" d="M13.389 9.057c0-.185.26-.335.58-.335h1.674c.222 0 .425.074.521.19.097.115.07.252-.067.353l-1.675 1.22c-.153.111-.412.154-.645.107-.232-.046-.388-.173-.388-.316z" clip-rule="evenodd"/></svg>
